X:12
T:Wood House, The
M:6/8
L:1/8
B:Thompson's Compleat Collection of 200 Favourite Country Dances, vol. 3 (London, 1773)
Z:Transcribed and edited by Flynn Titford-Mock, 2007
Z:abc's:AK/Fiddler's Companion
K:F
d | cdc BAB | Acf afc | dBb gfe | fff f2::f | gec BAB | GAB cAF |
afd bag | fga c3 | dBG cAF | EGB Acf | Bdf cba | gfe f2 :|

